icons/Box2DPolygonShape.svg

<svg height="16" viewBox="0 0 16 16" width="16" xmlns="http://www.w3.org/2000/svg"><path d="m2 1a1.0001 1.0001 0 0 0 -1 1v12a1.0001 1.0001 0 0 0 1 1h4v-1-1h-3v-10h8.585938l-4.2929692 4.2929688a1.0001 1.0001 0 0 0 -.1582032 1.2070312h1.8652344v1.5.414062l.6738281.673829c.2255806.05029.4759839.122758.7460939.257812.191557.095779.39005.24057.580078.419922v-.265625s.012781-.766391.488281-1.400391c.003427-.004569.010196-.007166.013672-.011718l-2.0878905-2.087891 5.2929685-5.2929688a1.0001 1.0001 0 0 0 -.707031-1.7070312zm9.810547 12c.01376.037225.032532.071375.044922.109375.045892-.038225.090592-.059375.138672-.109375z" fill="#68b6ff"/><g fill="none" stroke="#68b6ff" stroke-linecap="square"><path d="m7.5 10v5.5h1.5s1.5 0 1.5-1.5-1.5-1.5-1.5-1.5h-1.5"/><path d="m15.5 15.5h-3c0-2.5 3-2 3-4 0 0 0-1-1.5-1s-1.5 1-1.5 1"/></g></svg>

<?xml version="1.0" encoding="UTF-8" standalone="no"?>
<svg
   xmlns:dc="http://purl.org/dc/elements/1.1/"
   xmlns:cc="http://creativecommons.org/ns#"
   xmlns:rdf="http://www.w3.org/1999/02/22-rdf-syntax-ns#"
   xmlns:svg="http://www.w3.org/2000/svg"
   xmlns="http://www.w3.org/2000/svg"
   xmlns:sodipodi="http://sodipodi.sourceforge.net/DTD/sodipodi-0.dtd"
   xmlns:inkscape="http://www.inkscape.org/namespaces/inkscape"
   height="16"
   viewBox="0 0 16 16"
   width="16"
   version="1.1"
   id="svg4"
   sodipodi:docname="Box2DPolygonShape.svg"
   inkscape:version="1.0.1 (3bc2e813f5, 2020-09-07)">
  <metadata
     id="metadata10">
    <rdf:RDF>
      <cc:Work
         rdf:about="">
        <dc:format>image/svg+xml</dc:format>
        <dc:type
           rdf:resource="http://purl.org/dc/dcmitype/StillImage" />
        <dc:title></dc:title>
      </cc:Work>
    </rdf:RDF>
  </metadata>
  <defs
     id="defs8" />
  <sodipodi:namedview
     pagecolor="#ffffff"
     bordercolor="#666666"
     borderopacity="1"
     objecttolerance="10"
     gridtolerance="10"
     guidetolerance="10"
     inkscape:pageopacity="0"
     inkscape:pageshadow="2"
     inkscape:window-width="2246"
     inkscape:window-height="1601"
     id="namedview6"
     showgrid="false"
     inkscape:zoom="44.547728"
     inkscape:cx="4.6989916"
     inkscape:cy="7.5424139"
     inkscape:window-x="3110"
     inkscape:window-y="205"
     inkscape:window-maximized="0"
     inkscape:current-layer="svg4"
     inkscape:document-rotation="0" />
  <path
     id="path856"
     style="color:#000000;font-style:normal;font-variant:normal;font-weight:normal;font-stretch:normal;font-size:medium;line-height:normal;font-family:sans-serif;font-variant-ligatures:normal;font-variant-position:normal;font-variant-caps:normal;font-variant-numeric:normal;font-variant-alternates:normal;font-variant-east-asian:normal;font-feature-settings:normal;font-variation-settings:normal;text-indent:0;text-align:start;text-decoration:none;text-decoration-line:none;text-decoration-style:solid;text-decoration-color:#000000;letter-spacing:normal;word-spacing:normal;text-transform:none;writing-mode:lr-tb;direction:ltr;text-orientation:mixed;dominant-baseline:auto;baseline-shift:baseline;text-anchor:start;white-space:normal;shape-padding:0;shape-margin:0;inline-size:0;clip-rule:nonzero;display:inline;overflow:visible;visibility:visible;isolation:auto;mix-blend-mode:normal;color-interpolation:sRGB;color-interpolation-filters:linearRGB;solid-color:#000000;solid-opacity:1;vector-effect:none;fill:#68b6ff;fill-opacity:1;fill-rule:nonzero;stroke:none;stroke-width:2;stroke-linecap:butt;stroke-linejoin:round;stroke-miterlimit:4;stroke-dasharray:none;stroke-dashoffset:0;stroke-opacity:1;color-rendering:auto;image-rendering:auto;shape-rendering:auto;text-rendering:auto;enable-background:accumulate;stop-color:#000000;stop-opacity:1;opacity:1"
     d="M 2 1 A 1.0001 1.0001 0 0 0 1 2 L 1 14 A 1.0001 1.0001 0 0 0 2 15 L 6 15 L 6 14 L 6 13 L 3 13 L 3 3 L 11.585938 3 L 7.2929688 7.2929688 A 1.0001 1.0001 0 0 0 7.1347656 8.5 L 9 8.5 L 9 10 L 9 10.414062 L 9.6738281 11.087891 C 9.8994087 11.138181 10.149812 11.210649 10.419922 11.345703 C 10.611479 11.441482 10.809972 11.586273 11 11.765625 L 11 11.5 C 11 11.5 11.012781 10.733609 11.488281 10.099609 C 11.491708 10.09504 11.498477 10.092443 11.501953 10.087891 L 9.4140625 8 L 14.707031 2.7070312 A 1.0001 1.0001 0 0 0 14 1 L 2 1 z M 11.810547 13 C 11.824307 13.037225 11.843079 13.071375 11.855469 13.109375 C 11.901361 13.07115 11.946061 13.05 11.994141 13 L 11.810547 13 z " />
  <path
     style="fill:none;stroke:#68b6ff;stroke-width:1px;stroke-linecap:square;stroke-linejoin:miter;stroke-opacity:1"
     d="m 7.5,10 v 5.5 H 9 c 0,0 1.5,0 1.5,-1.5 C 10.5,12.5 9,12.5 9,12.5 H 7.5"
     id="path987"
     sodipodi:nodetypes="ccczcc" />
  <path
     style="fill:none;stroke:#68b6ff;stroke-width:1px;stroke-linecap:square;stroke-linejoin:miter;stroke-opacity:1"
     d="m 15.5,15.5 h -3 c 0,-2.5 3,-2 3,-4 0,0 0,-1 -1.5,-1 -1.5,0 -1.5,1 -1.5,1"
     id="path989"
     sodipodi:nodetypes="ccszc" />
</svg>
